website/static/img/icons/hex.svg

<svg fill="none" viewBox="0 0 1450 600" xmlns="http://www.w3.org/2000/svg"><path clip-rule="evenodd" d="m250.11 0v199.49h-50v-199.49h-200.11v199.63.56 199.62 200.19h200.11v-300.69h50v300.69h200.18v-600zm249.9 0v600h450.29v-250.23h-200.2v149h-50v-199.46h250.2v-299.31zm200.09 199.49v-99.49h50v99.49zm550.02 0v-199.49h200.18v150l-100 100.09 100 100.09v249.82h-200.18v-300.69h-50v300.69h-200.11v-249.82l100.11-100.09-100.11-100.09v-150h200.11v199.49z" fill="#473982" fill-rule="evenodd"/></svg>

<svg viewBox="0 0 1450 600" fill="none" xmlns="http://www.w3.org/2000/svg">
<g>
<path fill-rule="evenodd" clip-rule="evenodd" d="M250.11 0V199.49H200.11V0H0V199.63V200.19V399.81V600H200.11V299.31H250.11V600H450.29V0H250.11ZM500.01 0V600H950.3V349.77H750.1V498.77H700.1V299.31H950.3V0H500.01ZM700.1 199.49V100H750.1V199.49H700.1ZM1250.12 199.49V0H1450.3V150L1350.3 250.09L1450.3 350.18V600H1250.12V299.31H1200.12V600H1000.01V350.18L1100.12 250.09L1000.01 150V0H1200.12V199.49H1250.12Z" fill="#473982"/>
</g>
</svg>
